X:1
T:Title
%%score [ ( 1 2 ) ( 3 4 ) ]
L:1/8
Q:1/4=120
M:4/4
K:G
V:1 treble nm="MusicXML Part"
V:2 treble 
V:3 bass nm="MusicXML Part"
V:4 bass 
V:1
 [DG]2 [DG]2 [DG]2 [FA]2 | [GB]2 [Bd]2 [GB]4 | [DG][DG][DG][DA] [GB]2 [GB]2 | [FA]4 G4 | %4
w: What can wash a-|way my sin?|Noth- ing but the blood of|Je- *|
w: For my par- don|this I see,|Noth- ing but the blood of|Je- *|
w: Noth- ing can for|sin a- tone,|Noth- ing but the blood of|Je- *|
w: This is all my|hope and peace,|Noth- ing but the blood of|Je- *|
 [DG]2 [DG]2 [DG]2 [FA]2 | [GB]2 [Bd]2 [GB]4 | [DG][DG][DG][DA] [GB]2 [GB]2 | [FA]4 G4 || %8
w: What can make me|whole a- gain?|Noth- ing but the blood of|Je- sus.|
w: For my cleans- ing|this my plea,|Noth- ing but the blood of|Je- sus.|
w: Naught of good that|I have done,|Noth- ing but the blood of|Je- sus.|
w: This is all my|right- eous- ness,|Noth- ing but the blood of|Je- sus.|
"^Refrain:" [Gd]4 [GB]2 [FA]2 | [GB]2 [Gd]2 [GB]4 | [FA]4 [FA]2 G2 | [FA]2 [FA]2 B2 d2 | %12
w: Oh! pre- cious|is the flow|That makes *|white as * *|
w: ||||
w: ||||
w: ||||
 [Gd]4 [GB]2 [FA]2 | [GB]2 [Gd]2 [GB]4 | [DG][DG][DG][DA] [GB]2 [GB]2 | [FA]4 G4 |] %16
w: No oth- er|fount I know,|Noth- ing but the blood of|Je- sus.|
w: ||||
w: ||||
w: ||||
V:2
 x8 | x8 | x8 | x4 G4 | x8 | x8 | x8 | x8 || x8 | x8 | x6 G2 | x4 G4 | x8 | x8 | x8 | x8 |] %16
w: |||sus;|||||||me|snow;|||||
w: |||sus;|||||||||||||
w: |||sus;|||||||||||||
w: |||sus;|||||||||||||
V:3
 [G,B,]2 [G,B,]2 [G,B,]2 [D,D]2 | [G,D]2 [G,D]2 [G,D]4 | [G,B,][G,B,][G,B,][G,C] [G,D]2 [G,D]2 | %3
 [D,C]4 [G,,G,B,]4 | [G,B,]2 [G,B,]2 [G,B,]2 [D,D]2 | [G,D]2 [G,D]2 [G,D]4 | %6
 [G,B,][G,B,][G,B,][G,C] [G,D]2 [G,D]2 | [D,C]4 [G,,G,B,]4 || [G,B,]4 [G,D]2 [D,D]2 | %9
 [G,D]2 [G,B,]2 [G,D]4 | [D,C]4 [D,C]2 [D,B,]2 | [D,D]2 [D,D]2 G,4 | [G,B,]4 [G,D]2 [D,D]2 | %13
 [G,D]2 [G,B,]2 [G,D]4 | [G,B,][G,B,][G,B,][G,C] [G,D]2 [G,,D]2 | [D,C]4 [G,,G,B,]4 |] %16
V:4
 x8 | x8 | x8 | x8 | x8 | x8 | x8 | x8 || x8 | x8 | x8 | x4 (D2 B,2) | x8 | x8 | x8 | x8 |] %16

